<?xml version="1.0" encoding="UTF-8"?>
<map version="1.8" tiledversion="1.8.2" orientation="orthogonal" renderorder="right-down" width="20" height="20" tilewidth="64" tileheight="64" infinite="0" nextlayerid="13" nextobjectid="87">
 <editorsettings>
  <export target="../maps/level1.lua" format="lua"/>
 </editorsettings>
 <tileset firstgid="1" name="test-tiled" tilewidth="64" tileheight="64" tilecount="54" columns="9">
  <image source="../maps/Texture/tileset.png" width="576" height="384"/>
 </tileset>
 <tileset firstgid="55" name="TX Tileset Stone Ground" tilewidth="64" tileheight="64" tilecount="16" columns="4">
  <image source="../maps/Texture/TX Tileset Stone Ground.png" width="256" height="256"/>
 </tileset>
 <tileset firstgid="71" name="TX Tileset Grass" tilewidth="64" tileheight="64" tilecount="16" columns="4">
  <image source="../maps/Texture/TX Tileset Grass.png" width="256" height="256"/>
 </tileset>
 <tileset firstgid="87" name="pixil-frame-0" tilewidth="64" tileheight="64" tilecount="4" columns="2">
  <image source="../maps/Texture/andlogic.png" width="190" height="162"/>
 </tileset>
 <tileset firstgid="91" name="abcd" tilewidth="64" tileheight="64" tilecount="209" columns="19">
  <image source="../maps/Texture/abcd.png" width="1248" height="712"/>
 </tileset>
 <tileset firstgid="300" name="a_b" tilewidth="64" tileheight="64" tilecount="209" columns="19">
  <image source="../maps/Texture/a_b.png" width="1248" height="712"/>
 </tileset>
 <tileset firstgid="509" name="door" tilewidth="64" tileheight="64" tilecount="2" columns="2">
  <image source="../maps/Texture/door.png" trans="ff00ff" width="156" height="89"/>
 </tileset>
 <objectgroup id="11" name="Walls">
  <object id="82" x="62" y="906" width="52" height="52"/>
  <object id="83" x="-256" y="-128" width="256" height="1536"/>
  <object id="84" x="-192" y="1280" width="1536" height="128"/>
  <object id="85" x="1280" y="-128" width="256" height="1472"/>
  <object id="86" x="-320" y="-192" width="1728" height="192"/>
 </objectgroup>
 <layer id="1" name="Ground" width="20" height="20">
  <data encoding="csv">
71,71,71,71,71,71,71,71,71,71,71,71,71,71,71,71,71,71,71,71,
71,71,71,71,71,71,71,71,71,71,71,71,71,71,71,71,71,71,71,71,
71,71,71,71,71,71,71,71,71,71,71,71,71,71,71,71,71,71,71,71,
71,71,71,71,71,71,71,71,71,71,71,71,71,71,71,71,71,71,71,71,
71,71,71,71,71,71,71,71,71,71,71,71,71,71,71,71,71,71,71,71,
71,71,71,71,71,71,71,71,71,71,71,71,71,71,71,71,71,71,71,71,
71,71,71,71,71,71,71,71,71,71,71,71,71,71,71,71,71,71,71,71,
71,71,71,71,71,71,71,71,71,71,71,71,71,71,71,71,71,71,71,71,
71,71,71,71,71,71,71,71,71,71,71,71,71,71,71,71,71,71,71,71,
71,71,71,71,71,71,71,71,71,71,71,71,71,71,71,71,71,71,71,71,
71,71,71,71,71,71,71,71,71,71,71,71,71,71,71,71,71,71,71,71,
71,71,71,71,71,71,71,71,71,71,71,71,71,71,71,71,71,71,71,71,
71,71,71,71,71,71,71,71,71,71,71,71,71,71,71,71,71,71,71,71,
71,71,71,71,71,71,71,71,71,71,71,71,71,71,71,71,71,71,71,71,
71,71,71,71,71,71,71,71,71,71,71,71,71,71,71,71,71,71,71,71,
71,71,71,71,71,71,71,71,71,71,71,71,71,71,71,71,71,71,71,71,
71,71,71,71,71,71,71,71,71,71,71,71,71,71,71,71,71,71,71,71,
71,71,71,71,71,71,71,71,71,71,71,71,71,71,71,71,71,71,71,71,
71,71,71,71,71,71,71,71,71,71,71,71,71,71,71,71,71,71,71,71,
71,71,71,71,71,71,71,71,71,71,71,71,71,71,71,71,71,71,71,71
</data>
 </layer>
 <layer id="7" name="letters" width="20" height="20" offsetx="-272.727" offsety="-166.667">
  <data encoding="csv">
0,0,0,0,0,0,0,0,0,0,0,0,0,0,0,0,0,0,0,0,
0,0,0,0,0,0,0,0,0,0,0,0,0,0,0,0,0,0,0,0,
0,0,0,0,0,0,0,0,0,0,0,0,0,0,0,0,0,0,0,0,
0,0,0,0,0,0,0,0,0,0,0,0,0,0,0,0,0,0,0,0,
0,0,0,0,0,0,0,0,0,0,0,0,0,0,0,0,0,0,0,0,
0,0,0,0,0,0,0,0,0,0,0,0,0,0,0,0,0,0,0,0,
0,0,0,0,0,0,0,0,0,0,0,0,0,0,0,0,0,0,0,0,
0,0,0,0,0,0,0,0,0,0,0,0,0,0,0,0,0,0,0,0,
0,0,0,0,0,0,0,0,0,0,0,0,0,360,361,362,0,0,0,0,
0,0,0,0,0,0,0,0,0,0,0,0,0,379,380,381,0,0,0,0,
0,0,0,0,0,0,0,0,0,0,96,97,0,0,0,0,0,0,0,0,
0,0,0,0,0,0,0,0,0,0,115,116,0,0,0,0,0,0,0,0,
0,0,0,0,0,0,0,0,0,0,134,135,0,0,0,0,0,0,0,0,
0,0,0,0,0,0,0,0,0,0,0,0,0,0,0,0,0,0,0,0,
0,0,0,0,0,0,0,0,0,0,0,0,0,0,0,0,0,0,0,0,
0,0,0,0,0,0,0,0,0,0,0,0,0,0,0,0,0,0,0,0,
0,0,0,0,0,0,0,0,0,0,0,0,0,0,0,0,0,0,0,0,
0,0,0,0,0,0,0,0,0,0,0,0,0,0,0,0,0,0,0,0,
0,0,0,0,0,0,0,0,0,0,0,0,0,0,0,0,0,0,0,0,
0,0,0,0,0,0,0,0,0,0,0,0,0,0,0,0,0,0,0,0
</data>
 </layer>
 <layer id="12" name="door" width="20" height="20">
  <data encoding="csv">
0,0,0,0,0,0,0,0,0,0,0,0,0,0,0,0,0,0,0,0,
0,0,0,0,0,0,0,0,0,0,0,0,0,0,0,0,0,0,0,0,
0,0,0,0,0,0,0,0,0,0,0,0,0,0,0,0,0,0,0,0,
0,0,0,0,0,0,0,0,0,0,0,0,0,0,0,0,0,0,0,0,
0,0,0,0,0,0,0,0,0,0,0,0,0,0,0,0,0,0,0,0,
0,0,0,0,0,0,0,0,0,0,0,0,0,0,0,0,0,0,0,0,
0,0,0,0,0,0,0,0,0,0,0,0,0,0,0,0,0,0,0,0,
0,0,0,0,0,0,0,0,0,0,0,0,0,0,0,0,0,0,0,0,
0,0,0,0,0,0,0,0,0,0,0,0,0,0,0,0,0,0,0,0,
0,0,0,0,0,0,0,0,0,0,0,0,0,0,0,0,0,0,0,0,
0,0,0,0,0,0,0,0,0,0,0,0,0,0,0,0,0,0,0,0,
0,0,0,0,0,0,0,0,0,0,0,0,0,0,0,0,0,0,0,0,
0,0,0,0,0,0,0,0,0,0,0,0,0,0,0,0,0,0,0,0,
0,0,0,0,0,0,0,0,0,0,0,0,0,0,0,0,0,0,0,0,
0,0,0,0,0,0,0,0,0,0,0,0,0,0,0,0,0,0,0,0,
0,0,0,0,0,0,0,0,0,0,0,0,0,0,0,0,0,0,0,0,
0,0,0,0,0,0,0,0,0,0,0,0,0,0,0,0,0,0,0,0,
0,509,510,0,0,0,0,0,0,0,0,0,0,0,0,0,0,0,0,0,
0,0,0,0,0,0,0,0,0,0,0,0,0,0,0,0,0,0,0,0,
0,0,0,0,0,0,0,0,0,0,0,0,0,0,0,0,0,0,0,0
</data>
 </layer>
</map>
