<?xml version="1.0" encoding="UTF-8"?>
<map version="1.8" tiledversion="1.8.2" orientation="orthogonal" renderorder="right-down" width="24" height="24" tilewidth="64" tileheight="64" infinite="0" nextlayerid="7" nextobjectid="19">
 <editorsettings>
  <export target="../maps/levelFinal.lua" format="lua"/>
 </editorsettings>
 <tileset firstgid="1" name="tileset" tilewidth="64" tileheight="64" tilecount="54" columns="9">
  <image source="../maps/Texture/tileset.png" trans="ff00ff" width="576" height="384"/>
 </tileset>
 <tileset firstgid="55" name="TX Tileset Grass" tilewidth="64" tileheight="64" tilecount="16" columns="4">
  <image source="../maps/Texture/TX Tileset Grass.png" trans="ff00ff" width="256" height="256"/>
 </tileset>
 <tileset firstgid="71" name="binary1" tilewidth="64" tileheight="64" tilecount="4" columns="2">
  <image source="../maps/Texture/binary1.png" trans="ff00ff" width="128" height="128"/>
 </tileset>
 <tileset firstgid="75" name="sum" tilewidth="64" tileheight="64" tilecount="4" columns="2">
  <image source="../maps/Texture/sum.png" trans="ff00ff" width="128" height="128"/>
 </tileset>
 <tileset firstgid="79" name="abcd" tilewidth="64" tileheight="64" tilecount="209" columns="19">
  <image source="../maps/Texture/abcd.png" trans="ff00ff" width="1248" height="712"/>
 </tileset>
 <tileset firstgid="288" name="andlogic" tilewidth="64" tileheight="64" tilecount="4" columns="2">
  <image source="../maps/Texture/andlogic.png" trans="ff00ff" width="190" height="162"/>
 </tileset>
 <tileset firstgid="292" name="orlogic" tilewidth="64" tileheight="64" tilecount="4" columns="2">
  <image source="../maps/Texture/orlogic.png" trans="ff00ff" width="190" height="162"/>
 </tileset>
 <tileset firstgid="296" name="door" tilewidth="64" tileheight="64" tilecount="2" columns="2">
  <image source="../maps/Texture/door.png" trans="ff00ff" width="156" height="89"/>
 </tileset>
 <layer id="1" name="Ground" width="24" height="24">
  <data encoding="csv">
55,55,55,56,55,55,55,55,55,55,55,55,55,55,55,55,55,55,55,55,55,55,55,55,
55,55,56,56,55,55,55,55,55,55,55,55,55,55,55,55,55,55,55,55,55,55,55,55,
55,55,55,56,56,56,55,55,55,55,55,55,55,55,55,55,55,55,55,55,55,55,55,55,
55,55,55,55,55,55,55,55,55,55,55,55,55,55,55,55,55,55,55,55,55,55,55,55,
55,55,55,55,55,55,55,55,55,55,55,55,55,55,55,55,55,55,55,55,55,55,55,55,
55,55,55,55,55,55,55,55,55,55,55,55,55,55,55,55,55,55,55,55,55,55,55,55,
55,55,55,55,55,55,55,55,55,55,55,55,55,55,55,55,55,55,55,55,55,55,56,55,
55,55,55,55,55,55,55,55,55,55,55,55,55,55,55,55,55,55,55,55,56,56,56,55,
55,55,55,55,55,55,55,55,55,55,55,56,56,56,56,56,56,56,55,56,56,56,55,55,
55,55,55,55,55,55,55,56,56,56,56,56,56,56,56,56,56,56,56,55,56,55,55,55,
55,55,55,55,56,55,55,55,55,55,56,56,56,56,56,56,56,56,56,56,56,55,55,55,
55,55,55,56,56,55,55,55,55,55,55,55,55,55,56,56,56,56,56,56,56,55,55,55,
55,55,55,56,55,55,55,55,56,56,56,56,56,56,56,56,56,56,56,56,56,55,55,55,
55,55,55,56,55,55,55,55,55,55,55,56,55,56,56,56,56,56,56,56,55,55,55,55,
55,55,55,56,55,55,55,55,56,56,56,56,56,56,56,56,56,56,56,56,55,55,55,55,
55,55,55,56,55,55,55,56,56,55,56,56,56,56,56,56,56,56,56,55,55,55,55,55,
55,55,55,56,55,55,56,55,56,56,56,56,56,56,56,56,56,56,56,56,56,56,56,55,
55,55,55,56,56,56,56,56,56,56,56,56,56,56,56,56,56,56,56,56,56,55,55,55,
55,55,55,56,56,56,56,56,56,55,56,56,56,56,56,56,56,56,56,56,55,55,55,55,
55,55,55,56,55,55,55,55,55,56,56,56,56,56,56,56,56,56,56,56,56,56,55,55,
55,55,55,56,55,55,55,55,56,56,56,56,56,56,56,56,55,56,56,56,55,55,55,55,
55,55,55,56,55,55,56,56,56,56,56,56,56,56,55,55,55,55,55,55,55,55,55,55,
55,55,55,55,55,55,55,55,55,55,55,55,55,55,55,55,55,55,55,55,55,55,55,55,
55,55,55,55,55,55,55,55,55,55,55,55,55,55,55,55,55,55,55,55,55,55,55,55
</data>
 </layer>
 <objectgroup id="3" name="Walls">
  <object id="4" x="-78.7879" y="-9.09091" width="72.7273" height="1772.73"/>
  <object id="6" x="-103.03" y="1533.33" width="1690.91" height="84.8485"/>
  <object id="7" x="1527.27" y="-51.5152" width="184.848" height="1621.21"/>
  <object id="8" x="-93.9394" y="-200" width="1642.42" height="193.939"/>
 </objectgroup>
 <objectgroup id="5" name="Celulas">
  <object id="10" name="S1" x="640" y="256" width="128" height="128"/>
  <object id="12" name="S2" x="640" y="384" width="128" height="128"/>
  <object id="13" name="S3" x="640" y="512" width="128" height="128"/>
  <object id="14" name="S4" x="640" y="640" width="128" height="128"/>
  <object id="15" name="S5" x="640" y="768" width="128" height="128"/>
  <object id="16" name="S6" x="640" y="896" width="128" height="128"/>
  <object id="17" name="S7" x="640" y="1024" width="128" height="128"/>
  <object id="18" name="S8" x="640" y="1152" width="128" height="128"/>
 </objectgroup>
 <layer id="6" name="Decoracao" width="24" height="24">
  <data encoding="csv">
57,57,57,57,57,57,57,57,57,57,57,0,61,0,0,0,0,0,0,58,57,57,57,57,
57,57,57,57,57,0,57,57,57,0,61,0,61,0,0,0,0,0,0,0,58,58,58,57,
57,57,57,57,57,57,61,61,0,0,0,0,61,0,0,0,0,0,0,0,0,0,58,57,
57,57,57,57,57,57,0,0,0,0,0,0,0,0,0,0,0,0,0,0,0,0,58,57,
57,57,57,57,61,0,0,0,0,0,0,0,0,0,0,0,0,0,0,0,0,0,0,57,
57,57,57,0,0,0,0,0,0,0,0,0,0,0,0,0,0,0,0,0,0,0,0,57,
57,57,61,0,0,0,0,0,0,0,0,0,0,0,0,0,0,0,0,0,0,0,0,0,
57,61,0,0,0,0,0,0,0,0,0,0,0,0,0,0,0,0,0,0,0,0,0,0,
0,61,0,0,0,0,0,0,0,0,0,0,0,0,0,0,0,0,0,0,0,0,0,0,
0,0,0,0,0,0,0,0,0,0,0,0,0,0,0,0,0,0,0,0,0,0,0,0,
0,0,0,0,0,0,0,0,0,0,0,0,0,0,0,0,0,0,0,0,0,0,0,0,
0,0,0,0,0,0,0,0,0,0,0,0,0,0,0,0,0,0,0,0,0,0,0,0,
0,0,0,0,0,0,0,0,0,0,0,0,0,0,0,0,0,0,0,0,0,0,0,0,
0,0,0,0,0,0,0,0,0,0,0,0,0,0,0,0,0,0,0,0,0,0,0,0,
0,0,0,0,0,0,0,0,0,0,0,0,0,0,0,0,0,0,0,0,0,0,0,62,
0,0,0,0,0,0,0,0,0,0,0,0,0,0,0,0,0,0,0,0,0,0,0,62,
0,0,0,0,0,0,0,0,0,0,0,0,0,0,0,0,0,0,0,0,0,0,62,62,
62,0,0,0,0,0,0,0,0,0,0,0,0,0,0,0,0,0,0,0,0,0,62,62,
57,57,62,0,0,0,0,0,0,0,0,0,0,0,0,0,0,0,0,0,0,61,61,62,
57,57,57,0,62,0,0,0,0,0,0,0,0,0,0,0,0,0,0,61,61,61,61,62,
57,57,57,57,62,0,0,0,0,0,0,0,0,0,0,0,0,0,0,61,61,61,62,62,
57,57,57,57,57,57,0,0,0,0,0,0,0,0,0,0,0,0,61,61,62,61,61,62,
57,57,57,57,57,57,62,0,0,0,0,0,0,0,0,0,0,0,61,62,62,62,61,62,
57,57,57,57,57,57,62,0,0,0,0,0,0,0,0,0,60,0,62,62,62,62,61,62
</data>
 </layer>
</map>
